;FLAVOR:Marlin
;TIME:10083
;Filament used: 6.48629m
;Layer height: 0.2
;MINX:0
;MINY:0
;MINZ:0.3
;MAXX:138.24
;MAXY:128.212
;MAXZ:21.975
;TARGET_MACHINE.NAME:Anycubic i3 Mega S/Pro
;Generated with Cura_SteamEngine 5.11.0
;Profil Homepage: https://github.com/NilsRo/Cura_Anycubic_MegaS_Profile

;Slicer Information - (Support for OctoPrint Slicer Estimator)
;Slicer info:material_guid;0ff92885-617b-4144-a03c-9989872454bc
;Slicer info:material_id;generic_pla_175
;Slicer info:material_brand;Generic
;Slicer info:material_name;PLA
;Slicer info:filament_cost;[0.0];Slicer info:material_bed_temperature;60
;Slicer info:material_bed_temperature_layer_0;60
;Slicer info:material_print_temperature;200
;Slicer info:material_print_temperature_layer_0;205
;Slicer info:material_flow;100
;Slicer info:layer_height;0.2
;Slicer info:machine_nozzle_size;0.4
;Slicer info:wall_thickness;1.2000000000000002
;Slicer info:speed_print;50.0
;Slicer info:speed_topbottom;25.0
;Slicer info:travel_speed;100.0
;Slicer info:support;0
;Slicer info:retraction_speed;30
;Slicer info:retraction_amount;6
;Slicer info:layer_height;0.2
;Slicer info:infill_pattern;grid
;Slicer info:infill_sparse_density;25
;Slicer info:cool_fan_enabled;True
;Slicer info:cool_fan_speed;100
;Slicer info:sliced_at;Mon 19-01-2026 15:45:08
G21                                        ; metric values 
G90                                        ; absolute positioning 
M82                                        ; set extruder to absolute mode 
M900 K0                                    ; disable lin. adv. if not set in GCODE
M107                                       ; start with the fan off 
M140 S60   ; Start heating the bed 
G4 S60                                     ; wait 1 minute 
M104 S205 ; start heating the hot end 
M190 S60   ; wait for bed 
M109 S205 ; wait for hotend 
M300 S1000 P500                            ; BEEP heating done 
G28 X0 Y10 Z0                              ; move X/Y to min endstops 
M420 S1                                    ; Enable leveling 
M420 Z2.0                                  ; Set leveling fading height to 2 mm 
G0 Z0.15                                   ; lift nozzle a bit 
G92 E0                                     ; zero the extruded length 
G1 X50 E20 F500                            ; Extrude 20mm of filament in a 5cm line. 
G92 E0                                     ; zero the extruded length again 
G1 E-2 F500                                ; Retract a little 
G1 X50 F500                                ; wipe away from the filament line
G1 X100 F9000                              ; Quickly wipe away from the filament line
M82 ;absolute extrusion mode
G92 E0
G92 E0
G1 F1800 E-6
;LAYER_COUNT:109
;LAYER:0
M106 S76.5
M205 X10 Y10
G1 F480 Z0.375
G0 F6000 X0.00 Y0.00 Z0.375
G0 X61.598 Y113.4
M205 X8 Y8
;TYPE:SKIRT
G1 F480 Z0.3
G1 F1800 E0
G1 F1200 X62.205 Y113.228 E0.03148
G1 X62.811 Y113.399 E0.06289
G1 X62.915 Y113.51 E0.07048
G1 X63.025 Y113.57 E0.07673
G1 X63.116 Y113.565 E0.08128
G1 X63.311 Y113.509 E0.0914
G1 X63.781 Y113.641 E0.11575
G1 X64.124 Y114.004 E0.14067
G1 X64.256 Y114.459 E0.16431
G1 X64.224 Y114.573 E0.17021
G1 X64.224 Y114.683 E0.1757
G1 X64.312 Y114.988 E0.19154
G1 X64.141 Y115.596 E0.22305
G1 X64.039 Y115.699 E0.23028
G1 X63.983 Y115.81 E0.23648
G1 X64.034 Y115.975 E0.2451
G1 X64.124 Y116.073 E0.25174
G1 X64.256 Y116.525 E0.27523
G1 X64.125 Y116.995 E0.29957
G1 X63.761 Y117.359 E0.32525
G1 X63.704 Y117.47 E0.33148
G1 X63.71 Y117.556 E0.33578
G1 X63.725 Y117.607 E0.33843
G1 X63.796 Y117.71 E0.34467
G1 X63.874 Y117.746 E0.34896
G1 X64.157 Y117.808 E0.36341
G1 X64.343 Y118.005 E0.37693
G1 X64.417 Y118.255 E0.38994
G1 X64.345 Y118.514 E0.40335
G1 X64.159 Y118.7 E0.41647
G1 X63.79 Y118.781 E0.43532
G1 X63.545 Y118.718 E0.44794
G1 X63.42 Y118.727 E0.45419
G1 X63.354 Y118.771 E0.45815
G1 X62.816 Y119.309 E0.49611
G1 X62.207 Y119.479 E0.52765
G1 X61.622 Y119.307 E0.55808
G1 X61.153 Y118.838 E0.59117
G1 X60.982 Y118.255 E0.62148
G1 X61.054 Y118.011 E0.63417
G1 X61.054 Y117.897 E0.63986
G1 X60.982 Y117.654 E0.6525
G1 X61.083 Y117.31 E0.67039
G1 X61.083 Y117.197 E0.67603
G1 X60.982 Y116.854 E0.69386
G1 X61.082 Y116.511 E0.71169
G1 X61.082 Y116.398 E0.71733
G1 X61.038 Y116.249 E0.72508
G1 X60.967 Y116.147 E0.73128
G1 X60.903 Y116.114 E0.73487
G1 X60.643 Y116.037 E0.7484
G1 X60.174 Y115.568 E0.78149
G1 X60.002 Y114.985 E0.81181
G1 X60.174 Y114.4 E0.84224
G1 X60.617 Y113.932 E0.87439
G1 X61.213 Y113.765 E0.90527
G1 X61.304 Y113.71 E0.91057
G1 X61.598 Y113.4 E0.93189
M205 X10 Y10
G0 F6000 X61.812 Y113.755
M205 X8 Y8
G1 F1200 X62.205 Y113.644 E0.95226
G1 X62.596 Y113.755 E0.97254
G1 X62.624 Y113.784 E0.97455
G1 X62.8 Y113.913 E0.98544
G1 X63.01 Y113.971 E0.9963
G1 X63.226 Y113.95 E1.00713
G1 X63.313 Y113.925 E1.01165
G1 X63.566 Y113.996 E1.02476
G1 X63.768 Y114.21 E1.03944
G1 X63.84 Y114.46 E1.05242
G1 X63.818 Y114.681 E1.0635
G1 X63.84 Y114.794 E1.06924
G1 X63.896 Y114.988 E1.07932
G1 X63.784 Y115.388 E1.10004
G1 X63.754 Y115.418 E1.10216
G1 X63.631 Y115.598 E1.11303
G1 X63.582 Y115.811 E1.12394
G1 X63.611 Y116.027 E1.13481
G1 X63.74 Y116.246 E1.14749
G1 X63.767 Y116.275 E1.14947
G1 X63.84 Y116.527 E1.16256
G1 X63.768 Y116.786 E1.17597
G1 X63.478 Y117.076 E1.19643
G1 X63.354 Y117.255 E1.20729
G1 X63.303 Y117.468 E1.21822
G1 X63.326 Y117.669 E1.22831
G1 X63.341 Y117.72 E1.23097
G1 X63.44 Y117.915 E1.24188
G1 X63.602 Y118.061 E1.25276
G1 X63.788 Y118.137 E1.26278
G1 X63.95 Y118.173 E1.27106
G1 X63.986 Y118.211 E1.27367
G1 X64.001 Y118.26 E1.27623
G1 X63.988 Y118.305 E1.27857
G1 X63.959 Y118.334 E1.28061
G1 X63.796 Y118.37 E1.28894
G1 X63.644 Y118.331 E1.29677
G1 X63.426 Y118.316 E1.30767
G1 X63.218 Y118.38 E1.31853
G1 X63.071 Y118.488 E1.32763
G1 X62.607 Y118.952 E1.36037
G1 X62.211 Y119.063 E1.38088
G1 X61.833 Y118.952 E1.40054
G1 X61.508 Y118.627 E1.42347
G1 X61.399 Y118.254 E1.44286
G1 X61.437 Y118.125 E1.44957
G1 X61.46 Y117.908 E1.46045
G1 X61.437 Y117.783 E1.46679
G1 X61.399 Y117.655 E1.47345
G1 X61.467 Y117.423 E1.48552
G1 X61.489 Y117.206 E1.4964
G1 X61.466 Y117.084 E1.50259
G1 X61.398 Y116.855 E1.51451
G1 X61.466 Y116.623 E1.52657
G1 X61.488 Y116.406 E1.53745
G1 X61.465 Y116.285 E1.5436
G1 X61.421 Y116.136 E1.55135
G1 X61.323 Y115.942 E1.56219
G1 X61.161 Y115.795 E1.57311
G1 X61.017 Y115.731 E1.58097
G1 X60.855 Y115.683 E1.5894
G1 X60.529 Y115.357 E1.6124
G1 X60.42 Y114.985 E1.63174
G1 X60.531 Y114.605 E1.65149
G1 X60.832 Y114.286 E1.67337
G1 X61.32 Y114.15 E1.69864
G1 X61.594 Y113.985 E1.7146
G1 X61.812 Y113.755 E1.73041
M205 X10 Y10
G0 F6000 X62.027 Y114.11
M205 X8 Y8
G1 F1200 X62.205 Y114.06 E1.73964
G1 X62.405 Y114.116 E1.75
G1 X62.553 Y114.234 E1.75944
G1 X62.813 Y114.342 E1.77349
G1 X63.094 Y114.372 E1.78759
G1 X63.306 Y114.339 E1.79829
G1 X63.35 Y114.351 E1.80056
G1 X63.411 Y114.415 E1.80498
G1 X63.435 Y114.497 E1.80924
G1 X63.416 Y114.635 E1.81619
G1 X63.455 Y114.905 E1.8298
G1 X63.48 Y114.991 E1.83427
G1 X63.421 Y115.202 E1.8452
G1 X63.301 Y115.364 E1.85525
G1 X63.203 Y115.629 E1.86935
G1 X63.184 Y115.91 E1.8834
G1 X63.243 Y116.186 E1.89748
G1 X63.397 Y116.437 E1.91217
G1 X63.424 Y116.53 E1.91701
G1 X63.412 Y116.576 E1.91938
G1 X63.195 Y116.793 E1.93469
G1 X63.026 Y117.019 E1.94877
G1 X62.926 Y117.283 E1.96285
G1 X62.904 Y117.564 E1.97691
G1 X62.943 Y117.782 E1.98796
G1 X62.958 Y117.833 E1.99061
G1 X63.047 Y118.029 E2.00135
G1 X62.932 Y118.086 E2.00776
G1 X62.788 Y118.205 E2.01708
G1 X62.398 Y118.595 E2.04459
G1 X62.212 Y118.647 E2.05423
G1 X62.045 Y118.598 E2.06291
G1 X61.862 Y118.415 E2.07582
G1 X61.816 Y118.256 E2.08408
G1 X61.821 Y118.238 E2.08501
G1 X61.862 Y117.959 E2.09908
G1 X61.82 Y117.669 E2.1137
G1 X61.815 Y117.654 E2.11449
G1 X61.85 Y117.536 E2.12063
G1 X61.891 Y117.257 E2.1347
G1 X61.85 Y116.97 E2.14916
G1 X61.816 Y116.854 E2.15519
G1 X61.85 Y116.736 E2.16132
G1 X61.89 Y116.456 E2.17543
G1 X61.849 Y116.172 E2.18975
G1 X61.805 Y116.023 E2.1975
G1 X61.688 Y115.766 E2.21159
G1 X61.504 Y115.553 E2.22563
G1 X61.267 Y115.399 E2.23973
G1 X61.13 Y115.347 E2.24704
G1 X61.066 Y115.328 E2.25037
G1 X60.883 Y115.145 E2.26328
G1 X60.836 Y114.985 E2.2716
G1 X60.887 Y114.811 E2.28065
G1 X61.048 Y114.641 E2.29233
G1 X61.428 Y114.535 E2.31201
G1 X61.686 Y114.422 E2.32606
G1 X61.885 Y114.26 E2.33887
G1 X62.027 Y114.11 E2.34917
M205 X10 Y10
G0 F6000 X62.223 Y114.484
M205 X8 Y8
G1 F1200 X62.297 Y114.546 E2.35399
G1 X62.597 Y114.694 E2.37068
G1 X62.923 Y114.766 E2.38733
G1 X63.04 Y114.764 E2.39317
G1 X63.067 Y114.981 E2.40408
G1 X63.056 Y115.022 E2.4062
G1 X62.98 Y115.12 E2.41239
G1 X62.843 Y115.426 E2.42911
G1 X62.784 Y115.754 E2.44574
G1 X62.803 Y116.088 E2.46243
G1 X62.901 Y116.407 E2.47908
G1 X62.946 Y116.476 E2.48319
G1 X62.912 Y116.51 E2.48559
G1 X62.706 Y116.773 E2.50225
G1 X62.567 Y117.077 E2.51893
G1 X62.505 Y117.405 E2.53558
G1 X62.558 Y117.884 E2.55963
G1 X62.505 Y117.922 E2.56288
G1 X62.23 Y118.197 E2.58228
G1 X62.26 Y118.023 E2.59109
G1 X62.221 Y117.694 E2.60762
G1 X62.234 Y117.649 E2.60996
G1 X62.289 Y117.32 E2.6266
G1 X62.234 Y116.857 E2.64986
G1 X62.234 Y116.848 E2.65031
G1 X62.289 Y116.519 E2.66695
G1 X62.233 Y116.059 E2.69007
G1 X62.189 Y115.91 E2.69782
G1 X62.057 Y115.603 E2.71449
G1 X61.855 Y115.336 E2.7312
G1 X61.597 Y115.124 E2.74786
G1 X61.295 Y114.987 E2.7644
G1 X61.536 Y114.92 E2.77688
G1 X61.844 Y114.793 E2.7935
G1 X62.175 Y114.535 E2.81444
G1 X62.223 Y114.484 E2.81793
M205 X10 Y10
G0 F6000 X62.271 Y114.981
M205 X8 Y8
G1 F1200 X62.369 Y115.035 E2.82352
G1 X62.554 Y115.09 E2.83315
G1 X62.494 Y115.211 E2.83988
G1 X62.431 Y115.456 E2.85251
G1 X62.427 Y115.446 E2.85304
G1 X62.212 Y115.134 E2.87195
G1 X62.142 Y115.068 E2.87675
G1 X62.271 Y114.981 E2.88451
M205 X10 Y10
G1 F1800 E-3.11549
G1 F480 Z0.375
G0 F6000 X62.271 Y114.981 Z0.375
G0 X69.322 Y114.892
M205 X8 Y8
G1 F480 Z0.3
G1 F1800 E2.88451
G1 F1200 X69.37 Y114.729 E2.89299
G1 X69.37 Y114.615 E2.89867
G1 X69.322 Y114.454 E2.90706
G1 X69.395 Y114.208 E2.91986
G1 X69.587 Y114.004 E2.93383
G1 X69.853 Y113.93 E2.94761
G1 X69.944 Y113.875 E2.95291
G1 X70.223 Y113.581 E2.97313
G1 X70.83 Y113.409 E3.00461
G1 X71.437 Y113.581 E3.03609
G1 X71.78 Y113.943 E3.06097
G1 X71.89 Y114.002 E3.06719
G1 X71.98 Y113.997 E3.07169
G1 X72.532 Y113.84 E3.10032
G1 X73.139 Y114.012 E3.1318
G1 X73.583 Y114.482 E3.16405
G1 X73.755 Y115.068 E3.19452
G1 X73.585 Y115.677 E3.22607
G1 X73.141 Y116.121 E3.25739
G1 X72.533 Y116.291 E3.28889
G1 X72.185 Y116.189 E3.30698
G1 X72.06 Y116.193 E3.31322
G1 X71.947 Y116.299 E3.32095
G1 X71.781 Y116.666 E3.34105
G1 X71.767 Y116.79 E3.34727
G1 X71.813 Y116.88 E3.35232
G1 X71.851 Y116.923 E3.35518
G1 X71.959 Y116.987 E3.36144
G1 X72.056 Y116.983 E3.36629
G1 X72.533 Y116.847 E3.39103
G1 X73.14 Y117.019 E3.42251
G1 X73.584 Y117.489 E3.45476
G1 X73.756 Y118.075 E3.48523
G1 X73.586 Y118.684 E3.51678
G1 X73.142 Y119.128 E3.5481
G1 X72.534 Y119.298 E3.5796
G1 X71.95 Y119.126 E3.60997
G1 X71.577 Y118.756 E3.63619
G1 X71.465 Y118.7 E3.64243
G1 X71.31 Y118.742 E3.65045
G1 X70.909 Y119.066 E3.67617
G1 X70.429 Y119.199 E3.70101
G1 X69.978 Y119.067 E3.72446
G1 X69.615 Y118.704 E3.75007
G1 X69.483 Y118.254 E3.77347
G1 X69.746 Y117.352 E3.82034
G1 X69.742 Y117.227 E3.82658
G1 X69.692 Y117.151 E3.83112
G1 X69.395 Y116.868 E3.85159
G1 X69.323 Y116.624 E3.86428
G1 X69.397 Y116.375 E3.87724
G1 X69.586 Y116.175 E3.89097
G1 X69.64 Y116.062 E3.89722
G1 X69.633 Y115.981 E3.90127
G1 X69.609 Y115.9 E3.90549
G1 X69.703 Y115.579 E3.92217
G1 X69.699 Y115.455 E3.92836
G1 X69.649 Y115.378 E3.93294
G1 X69.393 Y115.134 E3.95059
G1 X69.322 Y114.892 E3.96317
M205 X10 Y10
G0 F6000 X69.739 Y114.891
M205 X8 Y8
G1 F1200 X69.753 Y114.843 E3.96566
G1 X69.776 Y114.626 E3.97655
G1 X69.753 Y114.5 E3.98294
G1 X69.739 Y114.453 E3.98539
G1 X69.75 Y114.415 E3.98736
G1 X69.803 Y114.359 E3.99121
G1 X69.96 Y114.315 E3.99934
G1 X70.234 Y114.15 E4.0153
G1 X70.437 Y113.936 E4.03002
G1 X70.83 Y113.825 E4.05039
G1 X71.221 Y113.936 E4.07067
G1 X71.489 Y114.218 E4.09008
G1 X71.666 Y114.346 E4.10097
G1 X71.876 Y114.403 E4.11183
G1 X72.089 Y114.382 E4.12251
G1 X72.532 Y114.256 E4.14549
G1 X72.923 Y114.367 E4.16576
G1 X73.227 Y114.688 E4.18782
G1 X73.339 Y115.071 E4.20773
G1 X73.228 Y115.468 E4.2283
G1 X72.932 Y115.764 E4.24918
G1 X72.536 Y115.875 E4.2697
G1 X72.298 Y115.805 E4.28207
G1 X72.081 Y115.783 E4.29296
G1 X71.87 Y115.84 E4.30386
G1 X71.694 Y115.968 E4.31472
G1 X71.582 Y116.134 E4.32471
G1 X71.416 Y116.501 E4.3448
G1 X71.364 Y116.713 E4.35569
G1 X71.391 Y116.929 E4.36655
G1 X71.513 Y117.145 E4.37893
G1 X71.551 Y117.188 E4.38179
G1 X71.723 Y117.323 E4.3927
G1 X71.932 Y117.387 E4.40361
G1 X72.165 Y117.368 E4.41527
G1 X72.533 Y117.263 E4.43436
G1 X72.924 Y117.374 E4.45464
G1 X73.228 Y117.695 E4.4767
G1 X73.34 Y118.078 E4.49661
G1 X73.229 Y118.475 E4.51717
G1 X72.933 Y118.771 E4.53806
G1 X72.537 Y118.882 E4.55857
G1 X72.16 Y118.771 E4.57818
G1 X71.859 Y118.472 E4.59935
G1 X71.678 Y118.349 E4.61027
G1 X71.466 Y118.299 E4.62113
G1 X71.25 Y118.328 E4.63201
G1 X71.059 Y118.431 E4.64283
G1 X70.722 Y118.703 E4.66444
G1 X70.433 Y118.783 E4.6794
G1 X70.189 Y118.712 E4.69208
G1 X69.97 Y118.493 E4.70753
G1 X69.9 Y118.254 E4.71995
G1 X70.13 Y117.464 E4.761
G1 X70.152 Y117.247 E4.77188
G1 X70.095 Y117.036 E4.78279
G1 X69.968 Y116.862 E4.79354
G1 X69.749 Y116.654 E4.8086
G1 X69.741 Y116.624 E4.81015
G1 X69.753 Y116.581 E4.81238
G1 X69.877 Y116.45 E4.82138
G1 X69.996 Y116.267 E4.83227
G1 X70.041 Y116.053 E4.84318
G1 X70.022 Y115.913 E4.85023
G1 X70.087 Y115.692 E4.86172
G1 X70.109 Y115.475 E4.8726
G1 X70.052 Y115.264 E4.88351
G1 X69.925 Y115.089 E4.89429
G1 X69.747 Y114.919 E4.90657
G1 X69.739 Y114.891 E4.90803
M205 X10 Y10
G0 F6000 X70.165 Y114.765
M205 X8 Y8
G1 F1200 X70.178 Y114.677 E4.91247
G1 X70.175 Y114.653 E4.91367
G1 X70.326 Y114.587 E4.92189
G1 X70.524 Y114.425 E4.93466
G1 X70.651 Y114.292 E4.94383
G1 X70.83 Y114.241 E4.95312
G1 X71.008 Y114.291 E4.96234
G1 X71.199 Y114.493 E4.97621
G1 X71.42 Y114.668 E4.99028
G1 X71.681 Y114.775 E5.00435
G1 X71.962 Y114.804 E5.01844
G1 X72.198 Y114.767 E5.03036
G1 X72.532 Y114.672 E5.04768
G1 X72.708 Y114.722 E5.05681
G1 X72.87 Y114.893 E5.06856
G1 X72.923 Y115.075 E5.07802
G1 X72.872 Y115.258 E5.0875
G1 X72.722 Y115.408 E5.09808
G1 X72.539 Y115.459 E5.10756
G1 X72.41 Y115.421 E5.11427
G1 X72.131 Y115.381 E5.12833
G1 X71.851 Y115.42 E5.14244
G1 X71.594 Y115.536 E5.1565
G1 X71.379 Y115.719 E5.17059
G1 X71.218 Y115.969 E5.18542
G1 X71.052 Y116.336 E5.20552
G1 X70.973 Y116.607 E5.2196
G1 X70.973 Y116.889 E5.23367
G1 X71.052 Y117.16 E5.24775
G1 X71.214 Y117.41 E5.26262
G1 X71.252 Y117.453 E5.26548
G1 X71.466 Y117.636 E5.27953
G1 X71.724 Y117.752 E5.29364
G1 X72.003 Y117.791 E5.30769
G1 X72.275 Y117.753 E5.3214
G1 X72.534 Y117.679 E5.33484
G1 X72.709 Y117.729 E5.34392
G1 X72.871 Y117.9 E5.35567
G1 X72.924 Y118.082 E5.36512
G1 X72.873 Y118.265 E5.3746
G1 X72.723 Y118.415 E5.38519
G1 X72.539 Y118.466 E5.39471
G1 X72.37 Y118.416 E5.4035
G1 X72.14 Y118.188 E5.41966
G1 X71.914 Y118.02 E5.43371
G1 X71.65 Y117.921 E5.44778
G1 X71.369 Y117.9 E5.46184
G1 X71.093 Y117.959 E5.47592
G1 X70.807 Y118.12 E5.49229
G1 X70.536 Y118.339 E5.50967
G1 X70.436 Y118.367 E5.51485
G1 X70.399 Y118.356 E5.51678
G1 X70.326 Y118.283 E5.52193
G1 X70.317 Y118.253 E5.52349
G1 X70.514 Y117.576 E5.55867
G1 X70.554 Y117.296 E5.57278
G1 X70.514 Y117.017 E5.58684
G1 X70.398 Y116.76 E5.60091
G1 X70.261 Y116.593 E5.61169
G1 X70.331 Y116.494 E5.61774
G1 X70.423 Y116.228 E5.63178
G1 X70.437 Y115.946 E5.64586
G1 X70.434 Y115.929 E5.64673
G1 X70.47 Y115.805 E5.65317
G1 X70.511 Y115.526 E5.66724
G1 X70.472 Y115.246 E5.68134
G1 X70.356 Y114.989 E5.69541
G1 X70.201 Y114.799 E5.70764
G1 X70.165 Y114.765 E5.71011
M205 X10 Y10
G0 F6000 X70.695 Y114.795
M205 X8 Y8
G1 F1200 X70.815 Y114.701 E5.71772
G1 X70.83 Y114.685 E5.71881
G1 X70.909 Y114.768 E5.72453
G1 X71.166 Y114.981 E5.74118
G1 X71.466 Y115.128 E5.75785
G1 X71.501 Y115.136 E5.75964
G1 X71.258 Y115.285 E5.77386
G1 X71.023 Y115.523 E5.79055
G1 X70.88 Y115.759 E5.80431
G1 X70.909 Y115.588 E5.81297
G1 X70.885 Y115.255 E5.82962
G1 X70.782 Y114.937 E5.8463
